X: 32357
T: Pint Of Port, The
R: jig
M: 6/8
K: Emajor
F3 dFe|faf ecA|B3 cBA|BcA BA=F|F3 dFe|faf ecA|c2 A BAF|EFA F3:|
B3 cBA|BcA BAF-|F2 B cBA|dFe FdF|B3 cBA|BcA BAF|c2 A BAF|EFA F3:|

